X:156
T:Xmas simple chords 12
M:3/4
L:1/8
K:G
G[G2G,2B,2D2]A B2 | A[G2G,2B,2D2]A B2 | A[G2G,2B,2D2]d d2 | d[d5D,5F,5A,5C5] | G[G2G,2B,2D2]A B2 |
A[G2G,2B,2D2]A B2 | A[G2G,2B,2D2]d d2 | d[d5D,5F,5A,5C5] | d[e2C,2E,2G,2]e d2 |
B2<[d2G,2B,2D2] c2 | B[A2A,2C2E2]G A2 | B2<[c2D,2F,2A,2C2] B2 | c2 [d2G,,2] [G,2B,2D2] |
[g2C,,2] [e2C,2E,2G,2] [d2G,,2] | [G,2B,2D2] [B2D,,2] [c2D,2F,2A,2C2] | [d2G,,2] [d2G,2B,2D2] [g2C,,2] | [e2C,2E,2G,2] [d2G,,2] [G,2B,2D2] |
[B2D,,2] [c2D,2F,2A,2C2] [d2G,,2] | [G,2B,2D2] [e2E,,2] [B2E,2G,2B,2] | [c2A,,2] [A2A,2C2E2] [G2D,,2] | [F2D,2F,2A,2C2] [G2G,,2] [G,B,D]A |
[B2G,,2] [G2G,2B,2D2] [c2C,,2] | [C,2E,2G,2] [B2D,,2] [c2D,2F,2A,2C2] | [d2G,,2] [G,2B,2D2] [e2E,,2] | [B2E,2G,2B,2] [c2A,,2] [A2A,2C2E2] |
[G2D,,2] [F2D,2F,2A,2C2] [G2G,,2] | [G,2B,2D2] G,,2 [G,2B,2D2] | G,,2 [G,2B,2D2] G,, |

